assets/icons/lynx.svg

<svg viewBox="0 0 24 24" fill="none" xmlns="http://www.w3.org/2000/svg">
<path fill-rule="evenodd" clip-rule="evenodd" d="M7.60393 5.86824L4.89356 7.8486C4.59901 8.06382 4.39507 8.38722 4.32344 8.75271L4.05845 10.1047C4.0444 10.1764 4.01324 10.2433 3.96781 10.2993L2.73792 12.0095C2.57233 12.2139 2.57633 12.7568 3.02987 13.1045C3.20379 13.2652 3.43633 13.6257 3.70082 14.0358C4.26084 14.9039 4.96413 15.9943 5.55778 15.881C6.39784 15.5679 7.42617 15.4678 8.21568 15.881C9.75044 17.2864 9.37361 18.5823 8.83335 20.4402C8.61595 21.1878 8.37209 22.0264 8.21568 22.9998C8.95283 20.1539 10.6104 16.8487 13.5993 15.7272C13.0608 15.2606 11.9618 14.8271 10.9893 14.7227C10.9893 14.7227 13.977 12.0095 17.6621 10.7628C15.0895 4.27018 10.8433 1.16743 10.8433 1.16743C10.627 0.883559 10.19 0.976687 10.0998 1.32589C10.0274 2.35231 9.90733 3.05026 9.7091 3.70817L8.21568 1.88023C8.05968 1.68074 7.74781 1.79593 7.74937 2.05246C8.00223 3.54351 7.96674 4.38045 7.60393 5.86824ZM8.65518 5.73195L8.66409 5.73134C8.68361 5.73002 8.70281 5.72732 8.72158 5.72335L8.65518 5.73195ZM10.6757 2.38419C11.6992 4.26001 12.1628 5.32567 12.3201 7.31446C11.2314 6.65848 10.757 6.49154 9.95644 6.49569C10.4235 4.98931 10.5661 4.08223 10.6757 2.38419Z" fill="#FF3D00"/>
<path d="M17.2529 16.3158C13.0843 17.3276 10.7163 18.8513 8.90527 23.0001C12.1563 17.2145 21.9974 18.2493 21.9974 18.2493C21.8135 17.3042 19.8568 15.502 18.57 14.3967C18.57 14.3967 19.6082 13.0428 21.9034 12.3575C21.9034 12.3575 17.4906 12.6287 14.9217 14.1C15.754 14.5658 16.82 15.3521 17.2529 16.3158Z" fill="#FF3D00"/>
</svg>

<svg xmlns="http://www.w3.org/2000/svg" fill="none" viewBox="0 0 24 24"><path fill="#ff3d00" fill-rule="evenodd" d="m7.604 5.868-2.71 1.98a1.47 1.47 0 0 0-.57.905l-.266 1.352a.45.45 0 0 1-.09.194l-1.23 1.71c-.166.205-.162.748.292 1.095.174.161.406.522.67.932.56.868 1.264 1.958 1.858 1.845.84-.313 1.868-.413 2.658 0 1.534 1.405 1.158 2.701.617 4.56-.217.747-.46 1.585-.617 2.559.737-2.846 2.394-6.151 5.383-7.273-.538-.466-1.637-.9-2.61-1.004 0 0 2.988-2.714 6.673-3.96-2.572-6.493-6.819-9.596-6.819-9.596a.42.42 0 0 0-.743.159c-.073 1.026-.193 1.724-.39 2.382L8.215 1.88c-.156-.2-.468-.084-.467.172.253 1.492.218 2.328-.145 3.816m1.051-.136h.01a.4.4 0 0 0 .057-.009zm2.02-3.348c1.024 1.876 1.488 2.942 1.645 4.93-1.089-.656-1.563-.822-2.364-.818.468-1.507.61-2.414.72-4.112" clip-rule="evenodd"/><path fill="#ff3d00" d="M17.253 16.316C13.084 17.328 10.716 18.85 8.905 23c3.251-5.785 13.092-4.75 13.092-4.75-.183-.946-2.14-2.748-3.427-3.853 0 0 1.038-1.354 3.333-2.04 0 0-4.412.272-6.981 1.743.832.466 1.898 1.252 2.33 2.216"/></svg>
